X: 1005
T: Walking In The Parlor
C:D. Dix Hollis (1861-1927)
B: jims roots
M:4/4
L:1/8
Q: 1/4=100
K:G
V:1 
|: "D"fga2 fga2 | fga2 b2a2| fga2 b2a2 | "A"ggfd "D"e2d2 |
   "D"fga2 fga2 | fga2 b2a2| fga2 b2a2 | "A"ggfd "D"e2d2 ||
(B,^CD2) (B,^CD2) | FFF2 E2F2 | (B,^CD2) (B,^CD2) | FFF2 E2F2 |
(B,^CD2) (B,^CD2) | FFF2 E2F2 | (B,^CD2) (B,^CD2) | FFF2 E2F2 :|
% abcbook-tune_id 6298c297326052254369a100


% abcbook-boost 0
% abcbook-tablature 
% abcbook-transpose 
% abcbook-lastupdated 1654178456610
% abcbook-soundfonts 
% abcbook-repeats 1


